src/icons/svg/editor.svg

<?xml version="1.0" standalone="no"?><!DOCTYPE svg PUBLIC "-//W3C//DTD SVG 1.1//EN" "http://www.w3.org/Graphics/SVG/1.1/DTD/svg11.dtd"><svg t="1586783682838" class="icon" viewBox="0 0 1024 1024" version="1.1" xmlns="http://www.w3.org/2000/svg" p-id="2127" xmlns:xlink="http://www.w3.org/1999/xlink" width="200" height="200"><defs><style type="text/css"></style></defs><path d="M925.597853 836.903811c0.367367-2.783393 0.847298-5.528923 0.847298-8.40953L926.44515 180.091658c19.034519-11.079336 31.976272-31.470759 31.976272-55.082526 0-35.32146-28.633131-63.956637-63.953567-63.956637-23.611767 0-44.007283 12.941753-55.082526 31.980365L182.108594 93.03286c-11.076266-19.038612-31.470759-31.980365-55.082526-31.980365-35.31839 0-63.953567 28.635177-63.953567 63.956637 0 23.611767 12.9438 44.00319 31.976272 55.082526l0 648.402623c0 2.880607 0.479931 5.627161 0.851391 8.40953-19.4991 10.954493-32.827663 31.586392-32.827663 55.543014 0 35.317367 28.635177 63.953567 63.953567 63.953567 35.32146 0 63.953567-28.635177 63.953567-63.953567l639.536698 0c0 35.317367 28.631084 63.953567 63.953567 63.953567 35.319413 0 63.953567-28.635177 63.953567-63.953567C958.421422 868.490204 945.093882 847.859327 925.597853 836.903811zM862.491583 828.494281 159.00234 828.494281 159.00234 180.091658c9.596566-5.586229 17.524119-13.513782 23.110347-23.110347l657.273664 0c5.582135 9.596566 13.509688 17.524119 23.106254 23.110347L862.492606 828.494281z" p-id="2128"></path><path d="M670.62781 252.915243 350.86202 252.915243 318.885747 252.915243 286.908452 252.915243 286.908452 380.818285 350.86202 380.818285 350.86202 316.864718 478.768131 316.864718 478.768131 668.610874 414.815587 668.610874 414.815587 732.564441 606.675266 732.564441 606.675266 668.610874 542.721699 668.610874 542.721699 316.864718 670.62781 316.864718 670.62781 380.818285 734.585471 380.818285 734.585471 252.915243 702.609199 252.915243Z" p-id="2129"></path></svg>

<svg class="icon" viewBox="0 0 1024 1024" xmlns="http://www.w3.org/2000/svg" width="200" height="200"><defs><style/></defs><path d="M925.598 836.904c.367-2.784.847-5.53.847-8.41V180.092c19.035-11.08 31.976-31.471 31.976-55.083 0-35.321-28.633-63.957-63.953-63.957-23.612 0-44.007 12.942-55.083 31.98H182.11c-11.077-19.038-31.471-31.98-55.083-31.98-35.318 0-63.953 28.636-63.953 63.957 0 23.612 12.943 44.003 31.976 55.083v648.402c0 2.88.48 5.627.851 8.41-19.499 10.954-32.827 31.586-32.827 55.543 0 35.317 28.635 63.953 63.953 63.953 35.322 0 63.954-28.635 63.954-63.953h639.536c0 35.317 28.631 63.953 63.954 63.953 35.32 0 63.953-28.635 63.953-63.953-.002-23.957-13.33-44.588-32.825-55.543zm-63.106-8.41h-703.49V180.092a63.844 63.844 0 0 0 23.11-23.11h657.274a63.801 63.801 0 0 0 23.107 23.11v648.402z"/><path d="M670.628 252.915h-383.72v127.903h63.954v-63.953h127.906V668.61h-63.952v63.953h191.86v-63.953h-63.954V316.865h127.906v63.953h63.957V252.915H702.61z"/></svg>
